local/share/icons/dracula-icons-main/scalable/apps/youtube.svg

<?xml version="1.0" encoding="UTF-8"?>
<svg xmlns="http://www.w3.org/2000/svg" xmlns:xlink="http://www.w3.org/1999/xlink" width="64" height="64" viewBox="0 0 64 64">
<path fill-rule="nonzero" fill="rgb(90.980392%, 18.039216%, 20.392157%)" fill-opacity="1" d="M 15.609375 8.460938 C 15.609375 12.40625 12.410156 15.605469 8.464844 15.605469 C 4.519531 15.605469 1.324219 12.40625 1.324219 8.460938 C 1.324219 4.515625 4.519531 1.316406 8.464844 1.316406 C 12.410156 1.316406 15.609375 4.515625 15.609375 8.460938 Z M 15.609375 8.460938 "/>
<path fill-rule="nonzero" fill="rgb(100%, 100%, 100%)" fill-opacity="1" d="M 12.125 7.0625 C 12.082031 6.566406 11.789062 5.941406 11.179688 5.917969 C 9.484375 5.804688 7.476562 5.773438 5.75 5.917969 C 5.214844 5.976562 4.847656 6.628906 4.808594 7.125 C 4.722656 8.167969 4.722656 8.757812 4.808594 9.800781 C 4.847656 10.296875 5.207031 10.953125 5.75 11.019531 C 7.5 11.132812 9.496094 11.152344 11.183594 11.019531 C 11.710938 10.929688 12.085938 10.296875 12.125 9.800781 C 12.210938 8.757812 12.210938 8.101562 12.125 7.0625 Z M 7.535156 9.785156 L 7.535156 7.113281 L 9.863281 8.449219 Z M 7.535156 9.785156 "/>
</svg>

<svg width="64" height="64" version="1.1" viewBox="0 0 16.933 16.933" xmlns="http://www.w3.org/2000/svg">
 <circle cx="8.4665" cy="8.46" r="7.1436" fill="#e82e34" style="paint-order:stroke markers fill"/>
 <path d="m12.125 7.061c-0.04142-0.49552-0.33688-1.1204-0.94407-1.1427-1.6955-0.114-3.7041-0.14517-5.4304 0-0.53555 0.060023-0.90266 0.71235-0.94267 1.2079-0.084673 1.0408-0.084673 1.6332 0 2.674 0.040481 0.49552 0.39829 1.1516 0.9436 1.2204 1.7467 0.114 3.7456 0.13028 5.4304 0 0.52857-0.09166 0.90312-0.72492 0.9436-1.2204 0.08421-1.0413 0.08421-1.6983-4.58e-4 -2.7391zm-4.5896 2.7224v-2.6684l2.3264 1.3344z" fill="#fff" stroke-width=".019239"/>
</svg>
